X: 284
T: The Dingle Regatta
M: 12/8
L: 1/8
R: slide
K: G
|:"G" d^cd e2d BAB d2B| "D"A3 AGA "G"B2A G2B|d^cd e2d BAB d2B|"D"A3 B2A "G"G3 G2B:|
|:"D"d3 def "G"g3 gfg|"D"a3 aga "G"b2ag2e|"D"d3 def "G"g3 gfg|"D"a2gf2e def "G"g3:|
|:"G"gag dgd BdB G3|"D"FGA DEF "G"GAB d2e|~g3 ~d3 ~B3 ~G3|"D"FGA DEF "G"G6:|

